packages/ffe-icons/icons/open/400/sm/storage.svg

<svg xmlns="http://www.w3.org/2000/svg" height="20" viewBox="0 -960 960 960" width="20"><path d="M168-192q-29.7 0-50.85-21.212-21.15-21.213-21.15-51Q96-294 117.15-315q21.15-21 50.85-21h624q29.7 0 50.85 21.212 21.15 21.213 21.15 51Q864-234 842.85-213 821.7-192 792-192H168Zm0-432q-29.7 0-50.85-21.212-21.15-21.213-21.15-51Q96-726 117.15-747q21.15-21 50.85-21h624q29.7 0 50.85 21.212 21.15 21.213 21.15 51Q864-666 842.85-645 821.7-624 792-624H168Zm0 216q-29.7 0-50.85-21.212-21.15-21.213-21.15-51Q96-510 117.15-531q21.15-21 50.85-21h624q29.7 0 50.85 21.212 21.15 21.213 21.15 51Q864-450 842.85-429 821.7-408 792-408H168Zm35.789-252Q219-660 229.5-670.289q10.5-10.29 10.5-25.5Q240-711 229.711-721.5q-10.29-10.5-25.5-10.5Q189-732 178.5-721.711q-10.5 10.29-10.5 25.5Q168-681 178.289-670.5q10.29 10.5 25.5 10.5Zm0 216Q219-444 229.5-454.289q10.5-10.29 10.5-25.5Q240-495 229.711-505.5q-10.29-10.5-25.5-10.5Q189-516 178.5-505.711q-10.5 10.29-10.5 25.5Q168-465 178.289-454.5q10.29 10.5 25.5 10.5Zm0 216Q219-228 229.5-238.289q10.5-10.29 10.5-25.5Q240-279 229.711-289.5q-10.29-10.5-25.5-10.5Q189-300 178.5-289.711q-10.5 10.29-10.5 25.5Q168-249 178.289-238.5q10.29 10.5 25.5 10.5Z"/></svg>

<svg xmlns="http://www.w3.org/2000/svg" height="20" viewBox="0 -960 960 960" width="20"><path d="M168-192q-29.7 0-50.85-21.21Q96-234.42 96-264.21T117.15-315q21.15-21 50.85-21h624q29.7 0 50.85 21.21 21.15 21.21 21.15 51T842.85-213Q821.7-192 792-192H168Zm0-432q-29.7 0-50.85-21.21Q96-666.42 96-696.21T117.15-747q21.15-21 50.85-21h624q29.7 0 50.85 21.21 21.15 21.21 21.15 51T842.85-645Q821.7-624 792-624H168Zm0 216q-29.7 0-50.85-21.21Q96-450.42 96-480.21T117.15-531q21.15-21 50.85-21h624q29.7 0 50.85 21.21 21.15 21.21 21.15 51T842.85-429Q821.7-408 792-408H168Zm35.79-252q15.21 0 25.71-10.29t10.5-25.5q0-15.21-10.29-25.71t-25.5-10.5q-15.21 0-25.71 10.29t-10.5 25.5q0 15.21 10.29 25.71t25.5 10.5Zm0 216q15.21 0 25.71-10.29t10.5-25.5q0-15.21-10.29-25.71t-25.5-10.5q-15.21 0-25.71 10.29t-10.5 25.5q0 15.21 10.29 25.71t25.5 10.5Zm0 216q15.21 0 25.71-10.29t10.5-25.5q0-15.21-10.29-25.71t-25.5-10.5q-15.21 0-25.71 10.29t-10.5 25.5q0 15.21 10.29 25.71t25.5 10.5Z"/></svg>
